16x16/actions/filename-sample-rate.svg

<svg viewBox="0 0 16 16" xmlns="http://www.w3.org/2000/svg"><path d="m10 3v2h-1v1h-1v1h-1v1h-2v-1h-1v-3h-1v2h-1v2h-1v1h1v2h1v1h1v-2h1v-1h2v1h1v1h1v1h1v2h1v-1h1v-2h1v-1h1v-1h1v-1h-1v-1h-1v-1h-1v-2h-1v-1z" fill="#8b9cbe"/></svg>

<svg xmlns="http://www.w3.org/2000/svg" viewBox="0 0 16 16"><path style="fill:currentColor;fill-opacity:1;stroke:none;color:#8b9cbe" d="M10 3v2H9v1H8v1H7v1H5V7H4V4H3v2H2v2H1v1h1v2h1v1h1v-2h1V9h2v1h1v1h1v1h1v2h1v-1h1v-2h1v-1h1V9h1V8h-1V7h-1V6h-1V4h-1V3h-1z"/></svg>
